dist/assets/style/footer/img/telegram.svg

<svg width="26" height="26" viewBox="0 0 26 26" fill="none" xmlns="http://www.w3.org/2000/svg">
<path d="M21.1818 3.24682C20.921 3.26579 20.665 3.32698 20.4238 3.428H20.4205C20.1889 3.51982 19.088 3.98294 17.4143 4.68494L11.4164 7.211C7.11257 9.02288 2.88188 10.8071 2.88188 10.8071L2.93226 10.7876C2.93226 10.7876 2.64057 10.8835 2.33588 11.0923C2.14765 11.2121 1.98567 11.3688 1.85976 11.553C1.71026 11.7724 1.59001 12.1079 1.63469 12.4549C1.70782 13.0415 2.08807 13.3933 2.36107 13.5875C2.63732 13.7841 2.90057 13.8759 2.90057 13.8759H2.90707L6.87451 15.2125C7.05244 15.7837 8.0835 19.1734 8.33132 19.9543C8.47757 20.4206 8.61976 20.7123 8.79769 20.9349C8.88382 21.0487 8.98457 21.1438 9.10563 21.2201C9.16857 21.2567 9.23567 21.2857 9.3055 21.3063L9.26488 21.2965C9.27707 21.2998 9.28682 21.3095 9.29575 21.3128C9.32825 21.3217 9.35019 21.3249 9.39163 21.3314C10.0197 21.5216 10.5243 21.1316 10.5243 21.1316L10.5527 21.1088L12.8951 18.976L16.8211 21.9879L16.9105 22.0261C17.7287 22.3853 18.5574 22.1854 18.9954 21.8328C19.4366 21.4777 19.608 21.0235 19.608 21.0235L19.6364 20.9504L22.6703 5.40807C22.7564 5.02457 22.7784 4.66544 22.6833 4.31688C22.5853 3.96411 22.3589 3.66071 22.0488 3.46619C21.7883 3.30785 21.4862 3.23142 21.1818 3.24682V3.24682ZM21.0998 4.91244C21.0965 4.96363 21.1063 4.95794 21.0835 5.05625V5.06519L18.0781 20.4458C18.0651 20.4678 18.0431 20.5157 17.983 20.5636C17.9196 20.614 17.8693 20.6457 17.6052 20.5409L12.8033 16.8594L9.90269 19.5033L10.5121 15.6114L18.3576 8.29894C18.6809 7.99832 18.5729 7.93494 18.5729 7.93494C18.5956 7.56607 18.0846 7.82688 18.0846 7.82688L8.19157 13.9556L8.18832 13.9393L3.44657 12.3428V12.3395L3.43438 12.3371C3.44269 12.3343 3.45083 12.3311 3.45876 12.3273L3.48476 12.3143L3.50994 12.3054C3.50994 12.3054 7.74388 10.5211 12.0477 8.70925C14.2024 7.80169 16.3734 6.88763 18.0431 6.18238C19.7128 5.48119 20.947 4.96688 21.0169 4.93925C21.0835 4.91325 21.0518 4.91325 21.0998 4.91325V4.91244Z" fill="white"/>
</svg>

<svg width="26" height="26" fill="none" xmlns="http://www.w3.org/2000/svg"><path d="M21.182 3.247c-.261.019-.517.08-.758.181h-.003c-.232.092-1.333.555-3.007 1.257L11.416 7.21c-4.303 1.812-8.534 3.596-8.534 3.596l.05-.02s-.291.096-.596.305a1.65 1.65 0 0 0-.476.461c-.15.22-.27.555-.225.902.073.586.453.938.726 1.133.276.196.54.288.54.288h.006l3.968 1.337c.177.57 1.209 3.96 1.456 4.741.147.467.289.758.467.98.086.115.187.21.308.286a.91.91 0 0 0 .2.086l-.041-.01c.012.004.022.014.03.017.033.009.055.012.097.018.628.19 1.132-.2 1.132-.2l.029-.022 2.342-2.133 3.926 3.012.09.038c.818.36 1.646.16 2.084-.193.442-.355.613-.81.613-.81l.028-.073L22.67 5.408c.086-.383.108-.743.013-1.091a1.468 1.468 0 0 0-.634-.85 1.521 1.521 0 0 0-.867-.22ZM21.1 4.912c-.004.052.006.046-.017.144v.01l-3.005 15.38c-.013.022-.035.07-.095.118-.063.05-.114.082-.378-.023l-4.802-3.682-2.9 2.644.61-3.892L18.357 8.3c.323-.3.215-.364.215-.364.023-.369-.488-.108-.488-.108l-9.893 6.129-.004-.017-4.741-1.596v-.004l-.013-.002a.215.215 0 0 0 .025-.01l.026-.013.025-.009 8.538-3.596c2.154-.907 4.325-1.821 5.995-2.527 1.67-.7 2.904-1.215 2.974-1.243.067-.026.035-.026.083-.026Z" fill="#fff"/></svg>
